packages/ui/src/lib/icons/svg/folder-tree.svg

<svg width="100%" height="100%" viewBox="0 0 16 16" fill="none" xmlns="http://www.w3.org/2000/svg">
<path d="M2 2V6M6 12H2V6M6 6H2" stroke="currentColor" stroke-width="1.5"/>
<path d="M10.9678 3.25L11.292 4.17676L11.4678 4.67871H13.75V6.75H8.75V3.25H10.9678Z" stroke="currentColor" stroke-width="1.5"/>
<path d="M10.9678 9.25L11.292 10.1768L11.4678 10.6787H13.75V12.75H8.75V9.25H10.9678Z" stroke="currentColor" stroke-width="1.5"/>
</svg>

<svg xmlns="http://www.w3.org/2000/svg" fill="none" viewBox="0 0 16 16" width="100%" height="100%"><path stroke="currentColor" stroke-width="1.5" d="M2 2v4m4 6H2V6m4 0H2m8.968-2.75.324.927.176.502h2.282V6.75h-5v-3.5zm0 6 .324.927.176.502h2.282v2.071h-5v-3.5z"/></svg>
